X: 7669
T: Coleman's
R: jig
M: 6/8
K: Dmajor
e|:fdB BAF|Adf agf|~g3 faf|fed ede|
fdB BAF|Adf agf|gag fgf|1 edc d2e:|2 edc d2B||
|:Add dcB|AFD DFA|Beee2d|cAA ABc|dfd cec|
B2B ABc|dAF EDE|1 FDD D2B:|2 FDD D2||

